assets/icons/footer-logo.svg

<svg width="180" height="22" viewBox="0 0 180 22" fill="none" xmlns="http://www.w3.org/2000/svg">
<path fill-rule="evenodd" clip-rule="evenodd" d="M17.2242 15.342V17.5133H18.6716V15.342H22.2895V22H9.84204V15.342H17.2242Z" fill="white"/>
<path fill-rule="evenodd" clip-rule="evenodd" d="M22.2895 0H9.84204V8.06373L12.0071 6.81376L12.0135 6.80262L21.2734 12.1488L20.5497 13.4023L12.0199 8.47762L9.84204 9.73502V14.6185H17.2242V11.8166L18.6716 12.6523V14.6185H22.2895V0ZM18.6716 10.2961V7.09199H17.2242V9.46049L18.6716 10.2961Z" fill="white"/>
<path fill-rule="evenodd" clip-rule="evenodd" d="M8.829 6.22388H0V18.8161H8.829V10.3195L3.47371 13.4114L2.75002 12.1579L8.829 8.64822V6.22388ZM5.35519 17.5128L5.35519 12.6588L6.80256 11.8232L6.80256 17.5128H5.35519Z" fill="white"/>
<path d="M40.6722 5.57812V14.9844H42.1957V20.3281H39.8597V17H32.7035V20.3281H30.3676V14.9844H31.2504C31.5472 14.3906 31.8337 13.763 32.1097 13.1016C32.3858 12.4401 32.6436 11.7292 32.8832 10.9688C33.1228 10.2083 33.3389 9.38281 33.5316 8.49219C33.7243 7.60156 33.8858 6.63021 34.016 5.57812H40.6722ZM38.2582 7.59375H35.9379C35.8597 8.14583 35.753 8.73438 35.6176 9.35938C35.4821 9.98438 35.3207 10.6224 35.1332 11.2734C34.9509 11.9193 34.7452 12.5573 34.516 13.1875C34.292 13.8177 34.0524 14.4167 33.7972 14.9844H38.2582V7.59375ZM51.3113 12.6172C51.3113 13.3464 51.2123 13.9922 51.0144 14.5547C50.8217 15.1172 50.5379 15.5938 50.1629 15.9844C49.7931 16.3698 49.3452 16.6615 48.8191 16.8594C48.2983 17.0573 47.7097 17.1562 47.0535 17.1562C46.4389 17.1562 45.8738 17.0573 45.3582 16.8594C44.8478 16.6615 44.4024 16.3698 44.0222 15.9844C43.6472 15.5938 43.3556 15.1172 43.1472 14.5547C42.9441 13.9922 42.8426 13.3464 42.8426 12.6172C42.8426 11.6484 43.0144 10.8281 43.3582 10.1562C43.7019 9.48438 44.1915 8.97396 44.8269 8.625C45.4623 8.27604 46.2202 8.10156 47.1004 8.10156C47.9181 8.10156 48.642 8.27604 49.2722 8.625C49.9077 8.97396 50.4051 9.48438 50.7644 10.1562C51.129 10.8281 51.3113 11.6484 51.3113 12.6172ZM45.2722 12.6172C45.2722 13.1901 45.3347 13.6719 45.4597 14.0625C45.5847 14.4531 45.7801 14.7474 46.0457 14.9453C46.3113 15.1432 46.6577 15.2422 47.0847 15.2422C47.5066 15.2422 47.8478 15.1432 48.1082 14.9453C48.3738 14.7474 48.5665 14.4531 48.6863 14.0625C48.8113 13.6719 48.8738 13.1901 48.8738 12.6172C48.8738 12.0391 48.8113 11.5599 48.6863 11.1797C48.5665 10.7943 48.3738 10.5052 48.1082 10.3125C47.8426 10.1198 47.4962 10.0234 47.0691 10.0234C46.4389 10.0234 45.9806 10.2396 45.6941 10.6719C45.4129 11.1042 45.2722 11.7526 45.2722 12.6172ZM63.8879 8.26562V17H61.6613V12.7109C61.6613 12.2891 61.6691 11.875 61.6847 11.4688C61.7004 11.0625 61.7238 10.6875 61.7551 10.3438H61.7082L59.2941 17H57.5051L55.0519 10.3281H54.9894C55.0311 10.6771 55.0597 11.0521 55.0754 11.4531C55.091 11.8542 55.0988 12.2943 55.0988 12.7734V17H52.8801V8.26562H56.2551L58.4269 14.1875L60.6379 8.26562H63.8879ZM73.9332 12.6172C73.9332 13.3464 73.8342 13.9922 73.6363 14.5547C73.4436 15.1172 73.1597 15.5938 72.7847 15.9844C72.4149 16.3698 71.967 16.6615 71.441 16.8594C70.9202 17.0573 70.3316 17.1562 69.6754 17.1562C69.0608 17.1562 68.4957 17.0573 67.9801 16.8594C67.4696 16.6615 67.0243 16.3698 66.6441 15.9844C66.2691 15.5938 65.9774 15.1172 65.7691 14.5547C65.566 13.9922 65.4644 13.3464 65.4644 12.6172C65.4644 11.6484 65.6363 10.8281 65.9801 10.1562C66.3238 9.48438 66.8134 8.97396 67.4488 8.625C68.0842 8.27604 68.842 8.10156 69.7222 8.10156C70.5399 8.10156 71.2639 8.27604 71.8941 8.625C72.5295 8.97396 73.0269 9.48438 73.3863 10.1562C73.7509 10.8281 73.9332 11.6484 73.9332 12.6172ZM67.8941 12.6172C67.8941 13.1901 67.9566 13.6719 68.0816 14.0625C68.2066 14.4531 68.4019 14.7474 68.6676 14.9453C68.9332 15.1432 69.2795 15.2422 69.7066 15.2422C70.1285 15.2422 70.4696 15.1432 70.7301 14.9453C70.9957 14.7474 71.1884 14.4531 71.3082 14.0625C71.4332 13.6719 71.4957 13.1901 71.4957 12.6172C71.4957 12.0391 71.4332 11.5599 71.3082 11.1797C71.1884 10.7943 70.9957 10.5052 70.7301 10.3125C70.4644 10.1198 70.1181 10.0234 69.691 10.0234C69.0608 10.0234 68.6024 10.2396 68.316 10.6719C68.0347 11.1042 67.8941 11.7526 67.8941 12.6172ZM79.0488 17.1562C78.1842 17.1562 77.4472 17 76.8379 16.6875C76.2285 16.3698 75.765 15.8802 75.4472 15.2188C75.1295 14.5573 74.9707 13.7109 74.9707 12.6797C74.9707 11.612 75.1504 10.7422 75.5097 10.0703C75.8743 9.39323 76.3769 8.89583 77.0176 8.57812C77.6634 8.26042 78.4108 8.10156 79.2597 8.10156C79.8639 8.10156 80.3847 8.16146 80.8222 8.28125C81.265 8.39583 81.6504 8.53385 81.9785 8.69531L81.2754 10.5391C80.9004 10.388 80.5514 10.2656 80.2285 10.1719C79.9056 10.0729 79.5827 10.0234 79.2597 10.0234C78.8431 10.0234 78.4967 10.1224 78.2207 10.3203C77.9446 10.513 77.7389 10.8047 77.6035 11.1953C77.4681 11.5859 77.4004 12.0755 77.4004 12.6641C77.4004 13.2422 77.4733 13.7214 77.6191 14.1016C77.765 14.4818 77.9759 14.7656 78.2519 14.9531C78.528 15.1354 78.8639 15.2266 79.2597 15.2266C79.7545 15.2266 80.1946 15.1615 80.5801 15.0312C80.9655 14.8958 81.3405 14.7083 81.7051 14.4688V16.5078C81.3405 16.737 80.9577 16.901 80.5566 17C80.1608 17.1042 79.6582 17.1562 79.0488 17.1562ZM90.5629 10.0547H87.7035V17H85.3207V10.0547H82.4535V8.26562H90.5629V10.0547ZM96.6551 8.10156C97.6394 8.10156 98.4337 8.48438 99.0379 9.25C99.6472 10.0156 99.9519 11.138 99.9519 12.6172C99.9519 13.6068 99.8087 14.4401 99.5222 15.1172C99.2358 15.7891 98.8399 16.2969 98.3347 16.6406C97.8295 16.9844 97.2488 17.1562 96.5926 17.1562C96.1707 17.1562 95.8087 17.1042 95.5066 17C95.2045 16.8906 94.9467 16.7526 94.7332 16.5859C94.5196 16.4141 94.3347 16.2318 94.1785 16.0391H94.0535C94.0952 16.2474 94.1264 16.4609 94.1472 16.6797C94.1681 16.8984 94.1785 17.112 94.1785 17.3203V20.8438H91.7957V8.26562H93.7332L94.0691 9.39844H94.1785C94.3347 9.16406 94.5248 8.94792 94.7488 8.75C94.9728 8.55208 95.241 8.39583 95.5535 8.28125C95.8712 8.16146 96.2384 8.10156 96.6551 8.10156ZM95.8894 10.0078C95.4728 10.0078 95.142 10.0938 94.8972 10.2656C94.6524 10.4375 94.4728 10.6953 94.3582 11.0391C94.2488 11.3828 94.1889 11.8177 94.1785 12.3438V12.6016C94.1785 13.1641 94.2306 13.6406 94.3347 14.0312C94.4441 14.4219 94.6238 14.7188 94.8738 14.9219C95.129 15.125 95.478 15.2266 95.9207 15.2266C96.2853 15.2266 96.5847 15.125 96.8191 14.9219C97.0535 14.7188 97.228 14.4219 97.3426 14.0312C97.4623 13.6354 97.5222 13.1536 97.5222 12.5859C97.5222 11.7318 97.3894 11.0885 97.1238 10.6562C96.8582 10.224 96.4467 10.0078 95.8894 10.0078ZM109.458 12.6172C109.458 13.3464 109.359 13.9922 109.161 14.5547C108.969 15.1172 108.685 15.5938 108.31 15.9844C107.94 16.3698 107.492 16.6615 106.966 16.8594C106.445 17.0573 105.857 17.1562 105.2 17.1562C104.586 17.1562 104.021 17.0573 103.505 16.8594C102.995 16.6615 102.549 16.3698 102.169 15.9844C101.794 15.5938 101.502 15.1172 101.294 14.5547C101.091 13.9922 100.989 13.3464 100.989 12.6172C100.989 11.6484 101.161 10.8281 101.505 10.1562C101.849 9.48438 102.338 8.97396 102.974 8.625C103.609 8.27604 104.367 8.10156 105.247 8.10156C106.065 8.10156 106.789 8.27604 107.419 8.625C108.055 8.97396 108.552 9.48438 108.911 10.1562C109.276 10.8281 109.458 11.6484 109.458 12.6172ZM103.419 12.6172C103.419 13.1901 103.482 13.6719 103.607 14.0625C103.732 14.4531 103.927 14.7474 104.193 14.9453C104.458 15.1432 104.805 15.2422 105.232 15.2422C105.653 15.2422 105.995 15.1432 106.255 14.9453C106.521 14.7474 106.713 14.4531 106.833 14.0625C106.958 13.6719 107.021 13.1901 107.021 12.6172C107.021 12.0391 106.958 11.5599 106.833 11.1797C106.713 10.7943 106.521 10.5052 106.255 10.3125C105.989 10.1198 105.643 10.0234 105.216 10.0234C104.586 10.0234 104.127 10.2396 103.841 10.6719C103.56 11.1042 103.419 11.7526 103.419 12.6172ZM113.332 8.26562V11.7188C113.332 11.8958 113.324 12.1198 113.308 12.3906C113.298 12.6562 113.282 12.9271 113.261 13.2031C113.24 13.4792 113.22 13.7266 113.199 13.9453C113.178 14.1641 113.162 14.3125 113.152 14.3906L117.183 8.26562H120.05V17H117.746V13.5156C117.746 13.2292 117.756 12.9141 117.777 12.5703C117.798 12.2214 117.821 11.8932 117.847 11.5859C117.873 11.2786 117.892 11.0469 117.902 10.8906L113.886 17H111.027V8.26562H113.332ZM119.394 4.50781C119.337 5.0599 119.181 5.54688 118.925 5.96875C118.67 6.39062 118.272 6.71875 117.73 6.95312C117.188 7.1875 116.459 7.30469 115.543 7.30469C114.6 7.30469 113.865 7.19271 113.339 6.96875C112.813 6.73958 112.438 6.41667 112.214 6C111.99 5.57812 111.855 5.08073 111.808 4.50781H113.941C113.988 5.09635 114.136 5.48698 114.386 5.67969C114.636 5.86719 115.037 5.96094 115.589 5.96094C116.048 5.96094 116.423 5.85677 116.714 5.64844C117.006 5.4401 117.181 5.0599 117.238 4.50781H119.394ZM131.258 17.1562C130.409 17.1562 129.625 17.013 128.907 16.7266C128.193 16.4349 127.571 16.026 127.039 15.5C126.513 14.974 126.105 14.3542 125.813 13.6406C125.526 12.9219 125.383 12.138 125.383 11.2891C125.383 10.4349 125.526 9.65104 125.813 8.9375C126.105 8.22396 126.513 7.60417 127.039 7.07812C127.571 6.54688 128.193 6.13802 128.907 5.85156C129.625 5.5599 130.409 5.41406 131.258 5.41406C132.112 5.41406 132.896 5.5599 133.61 5.85156C134.323 6.13802 134.943 6.54688 135.469 7.07812C135.995 7.60417 136.401 8.22396 136.688 8.9375C136.98 9.65104 137.125 10.4349 137.125 11.2891C137.125 12.138 136.98 12.9219 136.688 13.6406C136.401 14.3542 135.995 14.974 135.469 15.5C134.943 16.026 134.323 16.4349 133.61 16.7266C132.896 17.013 132.112 17.1562 131.258 17.1562ZM131.274 14.9531C130.123 14.9531 129.256 14.6172 128.672 13.9453C128.089 13.2682 127.797 12.3724 127.797 11.2578C127.797 10.5286 127.922 9.89323 128.172 9.35156C128.427 8.8099 128.808 8.39062 129.313 8.09375C129.818 7.79167 130.446 7.64062 131.196 7.64062C131.675 7.64062 132.118 7.69531 132.524 7.80469C132.93 7.90885 133.323 8.05729 133.703 8.25L132.985 9.85156C132.714 9.70573 132.448 9.59635 132.188 9.52344C131.927 9.45052 131.644 9.41406 131.336 9.41406C130.925 9.41406 130.597 9.57552 130.352 9.89844C130.112 10.2161 129.993 10.6797 129.993 11.2891C129.993 11.9505 130.105 12.4323 130.328 12.7344C130.558 13.0312 130.909 13.1797 131.383 13.1797C131.722 13.1797 132.063 13.138 132.407 13.0547C132.75 12.9661 133.081 12.8307 133.399 12.6484V14.4531C133.071 14.6198 132.737 14.7448 132.399 14.8281C132.065 14.9115 131.69 14.9531 131.274 14.9531ZM131.258 15.8828C131.909 15.8828 132.506 15.7708 133.047 15.5469C133.589 15.3229 134.055 15.0078 134.446 14.6016C134.842 14.1901 135.146 13.7057 135.36 13.1484C135.578 12.5859 135.688 11.9661 135.688 11.2891C135.688 10.612 135.578 9.99479 135.36 9.4375C135.146 8.875 134.842 8.39062 134.446 7.98438C134.055 7.57292 133.589 7.25521 133.047 7.03125C132.506 6.80729 131.909 6.69531 131.258 6.69531C130.597 6.69531 129.993 6.80729 129.446 7.03125C128.899 7.25521 128.427 7.57292 128.032 7.98438C127.636 8.39062 127.328 8.875 127.11 9.4375C126.896 9.99479 126.789 10.612 126.789 11.2891C126.789 11.9661 126.896 12.5859 127.11 13.1484C127.328 13.7057 127.636 14.1901 128.032 14.6016C128.427 15.0078 128.899 15.3229 129.446 15.5469C129.993 15.7708 130.597 15.8828 131.258 15.8828ZM146.077 17H138.093V15.3203L140.96 12.4219C141.538 11.8281 142.001 11.3333 142.35 10.9375C142.705 10.5365 142.96 10.1719 143.116 9.84375C143.277 9.51562 143.358 9.16406 143.358 8.78906C143.358 8.33594 143.231 7.9974 142.975 7.77344C142.725 7.54427 142.389 7.42969 141.968 7.42969C141.525 7.42969 141.095 7.53125 140.678 7.73438C140.262 7.9375 139.827 8.22656 139.374 8.60156L138.061 7.04688C138.389 6.76562 138.736 6.5 139.1 6.25C139.47 6 139.897 5.79948 140.382 5.64844C140.871 5.49219 141.457 5.41406 142.139 5.41406C142.889 5.41406 143.533 5.54948 144.069 5.82031C144.611 6.09115 145.027 6.46094 145.319 6.92969C145.611 7.39323 145.757 7.91927 145.757 8.50781C145.757 9.13802 145.632 9.71354 145.382 10.2344C145.132 10.7552 144.767 11.2708 144.288 11.7812C143.814 12.2917 143.241 12.8568 142.569 13.4766L141.1 14.8594V14.9688H146.077V17ZM154.771 11.2891C154.771 12.2109 154.698 13.0339 154.552 13.7578C154.411 14.4818 154.182 15.0964 153.864 15.6016C153.552 16.1068 153.14 16.4922 152.63 16.7578C152.12 17.0234 151.5 17.1562 150.771 17.1562C149.854 17.1562 149.101 16.9245 148.513 16.4609C147.924 15.9922 147.489 15.3203 147.208 14.4453C146.927 13.5651 146.786 12.513 146.786 11.2891C146.786 10.0547 146.914 9 147.169 8.125C147.43 7.24479 147.851 6.57031 148.435 6.10156C149.018 5.63281 149.797 5.39844 150.771 5.39844C151.682 5.39844 152.432 5.63281 153.021 6.10156C153.614 6.5651 154.055 7.23698 154.341 8.11719C154.627 8.99219 154.771 10.0495 154.771 11.2891ZM149.185 11.2891C149.185 12.1589 149.232 12.8854 149.325 13.4688C149.424 14.0469 149.588 14.4818 149.818 14.7734C150.047 15.0651 150.364 15.2109 150.771 15.2109C151.172 15.2109 151.487 15.0677 151.716 14.7812C151.95 14.4896 152.117 14.0547 152.216 13.4766C152.315 12.8932 152.364 12.1641 152.364 11.2891C152.364 10.4193 152.315 9.69271 152.216 9.10938C152.117 8.52604 151.95 8.08854 151.716 7.79688C151.487 7.5 151.172 7.35156 150.771 7.35156C150.364 7.35156 150.047 7.5 149.818 7.79688C149.588 8.08854 149.424 8.52604 149.325 9.10938C149.232 9.69271 149.185 10.4193 149.185 11.2891ZM163.589 17H155.605V15.3203L158.472 12.4219C159.05 11.8281 159.514 11.3333 159.863 10.9375C160.217 10.5365 160.472 10.1719 160.628 9.84375C160.79 9.51562 160.871 9.16406 160.871 8.78906C160.871 8.33594 160.743 7.9974 160.488 7.77344C160.238 7.54427 159.902 7.42969 159.48 7.42969C159.037 7.42969 158.608 7.53125 158.191 7.73438C157.774 7.9375 157.339 8.22656 156.886 8.60156L155.574 7.04688C155.902 6.76562 156.248 6.5 156.613 6.25C156.983 6 157.41 5.79948 157.894 5.64844C158.384 5.49219 158.97 5.41406 159.652 5.41406C160.402 5.41406 161.045 5.54948 161.582 5.82031C162.123 6.09115 162.54 6.46094 162.832 6.92969C163.123 7.39323 163.269 7.91927 163.269 8.50781C163.269 9.13802 163.144 9.71354 162.894 10.2344C162.644 10.7552 162.28 11.2708 161.8 11.7812C161.326 12.2917 160.753 12.8568 160.082 13.4766L158.613 14.8594V14.9688H163.589V17ZM172.603 14.6328H171.228V17H168.869V14.6328H163.994V12.9531L169.002 5.57812H171.228V12.7578H172.603V14.6328ZM168.869 12.7578V10.8203C168.869 10.638 168.872 10.4219 168.877 10.1719C168.887 9.92188 168.898 9.67188 168.908 9.42188C168.919 9.17188 168.929 8.95052 168.939 8.75781C168.955 8.5599 168.965 8.42188 168.971 8.34375H168.908C168.809 8.55729 168.705 8.76562 168.596 8.96875C168.486 9.16667 168.359 9.375 168.213 9.59375L166.119 12.7578H168.869Z" fill="white"/>
</svg>

<svg xmlns="http://www.w3.org/2000/svg" width="180" height="22" fill="none"><path fill="#fff" fill-rule="evenodd" d="M17.224 15.342v2.171h1.448v-2.171h3.617V22H9.843v-6.658h7.382ZM22.29 0H9.841v8.064l2.165-1.25.007-.011 9.26 5.346-.724 1.253-8.53-4.924-2.178 1.257v4.883h7.382v-2.801l1.448.835v1.966h3.617V0Zm-3.618 10.296V7.092h-1.448V9.46l1.448.836ZM8.829 6.224H0v12.592h8.829V10.32L3.474 13.41l-.724-1.253 6.079-3.51V6.224ZM5.355 17.513v-4.854l1.448-.836v5.69H5.355Z" clip-rule="evenodd"/><path fill="#fff" d="M40.672 5.578v9.406h1.524v5.344H39.86V17h-7.157v3.328h-2.335v-5.344h.882c.297-.593.584-1.221.86-1.882.276-.662.534-1.373.773-2.133.24-.76.456-1.586.649-2.477.192-.89.354-1.862.484-2.914h6.656Zm-2.414 2.016h-2.32c-.078.552-.185 1.14-.32 1.765a29.512 29.512 0 0 1-.485 1.914 27.271 27.271 0 0 1-.617 1.915c-.224.63-.464 1.229-.719 1.796h4.461v-7.39Zm13.053 5.023c0 .73-.099 1.375-.297 1.938a3.817 3.817 0 0 1-.851 1.43 3.58 3.58 0 0 1-1.344.874c-.52.198-1.11.297-1.766.297-.614 0-1.18-.099-1.695-.297a3.769 3.769 0 0 1-1.336-.875 4.08 4.08 0 0 1-.875-1.43c-.203-.562-.304-1.208-.304-1.937 0-.969.171-1.789.515-2.46a3.538 3.538 0 0 1 1.469-1.532c.635-.349 1.393-.523 2.273-.523.818 0 1.542.174 2.172.523a3.68 3.68 0 0 1 1.492 1.531c.365.672.547 1.492.547 2.461Zm-6.039 0c0 .573.063 1.055.188 1.445.125.391.32.685.586.883.265.198.612.297 1.039.297.422 0 .763-.099 1.023-.297.266-.198.459-.492.578-.883.125-.39.188-.872.188-1.445 0-.578-.063-1.057-.188-1.437-.12-.386-.312-.675-.578-.867-.265-.193-.612-.29-1.039-.29-.63 0-1.088.217-1.375.649-.281.432-.422 1.08-.422 1.945Zm18.616-4.351V17H61.66v-4.29c0-.42.008-.835.024-1.241.015-.406.039-.781.07-1.125h-.047L59.294 17h-1.789l-2.453-6.672h-.063c.042.35.07.724.086 1.125.016.401.024.841.024 1.32V17H52.88V8.266h3.375l2.172 5.921 2.21-5.921h3.25Zm10.045 4.351c0 .73-.099 1.375-.297 1.938a3.818 3.818 0 0 1-.851 1.43c-.37.385-.818.677-1.344.874-.52.198-1.11.297-1.766.297-.614 0-1.18-.099-1.695-.297a3.768 3.768 0 0 1-1.336-.875 4.079 4.079 0 0 1-.875-1.43c-.203-.562-.305-1.208-.305-1.937 0-.969.172-1.789.516-2.46a3.538 3.538 0 0 1 1.469-1.532c.635-.349 1.393-.523 2.273-.523.818 0 1.542.174 2.172.523.635.349 1.133.86 1.492 1.531.365.672.547 1.492.547 2.461Zm-6.039 0c0 .573.063 1.055.188 1.445.125.391.32.685.586.883.265.198.611.297 1.039.297.422 0 .763-.099 1.023-.297.266-.198.458-.492.578-.883.125-.39.188-.872.188-1.445 0-.578-.063-1.057-.188-1.437-.12-.386-.312-.675-.578-.867-.266-.193-.612-.29-1.039-.29-.63 0-1.089.217-1.375.649-.281.432-.422 1.08-.422 1.945Zm11.155 4.54c-.865 0-1.602-.157-2.211-.47-.61-.317-1.073-.807-1.39-1.468-.319-.662-.477-1.508-.477-2.54 0-1.067.18-1.937.539-2.609.364-.677.867-1.174 1.508-1.492.645-.318 1.393-.476 2.242-.476.604 0 1.125.06 1.562.18.443.114.828.252 1.156.413l-.703 1.844a11.096 11.096 0 0 0-1.047-.367 3.29 3.29 0 0 0-.968-.149c-.417 0-.763.1-1.04.297-.275.193-.481.485-.617.875-.135.39-.203.88-.203 1.47 0 .577.073 1.056.22 1.437.145.38.356.664.632.851.276.182.612.274 1.008.274.494 0 .935-.066 1.32-.196.386-.135.76-.323 1.125-.562v2.039c-.364.229-.747.393-1.148.492-.396.104-.899.156-1.508.156Zm11.514-7.102h-2.86V17h-2.382v-6.945h-2.867v-1.79h8.109v1.79Zm6.092-1.953c.984 0 1.779.382 2.383 1.148.61.766.914 1.888.914 3.367 0 .99-.143 1.823-.43 2.5-.286.672-.682 1.18-1.187 1.524-.505.343-1.086.515-1.742.515-.422 0-.784-.052-1.086-.156a2.79 2.79 0 0 1-.774-.414 3.673 3.673 0 0 1-.555-.547h-.124a6.735 6.735 0 0 1 .125 1.281v3.524h-2.383V8.266h1.937l.336 1.132h.11c.156-.234.346-.45.57-.648a2.5 2.5 0 0 1 .805-.469c.317-.12.684-.18 1.101-.18Zm-.766 1.906c-.416 0-.747.086-.992.258-.245.171-.424.43-.539.773-.11.344-.17.779-.18 1.305v.258c0 .562.053 1.039.157 1.43.11.39.289.687.539.89.255.203.604.305 1.047.305.364 0 .664-.102.898-.305.234-.203.409-.5.524-.89.12-.397.18-.878.18-1.446 0-.854-.134-1.498-.4-1.93-.265-.432-.676-.648-1.234-.648Zm13.569 2.61c0 .728-.099 1.374-.297 1.937a3.807 3.807 0 0 1-.851 1.43c-.37.385-.818.677-1.344.874-.521.198-1.109.297-1.766.297a4.696 4.696 0 0 1-1.695-.297 3.77 3.77 0 0 1-1.336-.875 4.075 4.075 0 0 1-.875-1.43c-.203-.562-.305-1.208-.305-1.937 0-.969.172-1.789.516-2.46a3.537 3.537 0 0 1 1.469-1.532c.635-.349 1.393-.523 2.273-.523.818 0 1.542.174 2.172.523.636.349 1.133.86 1.492 1.531.365.672.547 1.492.547 2.461Zm-6.039 0c0 .572.063 1.054.188 1.444.125.391.32.685.586.883.265.198.612.297 1.039.297.421 0 .763-.099 1.023-.297.266-.198.458-.492.578-.883.125-.39.188-.872.188-1.445 0-.578-.063-1.057-.188-1.437-.12-.386-.312-.675-.578-.867-.266-.193-.612-.29-1.039-.29-.63 0-1.089.217-1.375.649-.281.432-.422 1.08-.422 1.945Zm9.913-4.352v3.453c0 .177-.008.4-.024.672-.01.265-.026.536-.047.812s-.041.524-.062.742a16.48 16.48 0 0 1-.047.446l4.031-6.125h2.867V17h-2.304v-3.484c0-.287.01-.602.031-.946.021-.349.044-.677.07-.984.026-.307.045-.54.055-.695L113.886 17h-2.859V8.266h2.305Zm6.062-3.758a3.463 3.463 0 0 1-.469 1.46c-.255.423-.653.75-1.195.985-.542.234-1.271.352-2.187.352-.943 0-1.678-.112-2.204-.336-.526-.23-.901-.552-1.125-.969-.224-.422-.359-.92-.406-1.492h2.133c.047.588.195.979.445 1.172.25.187.651.28 1.203.28.459 0 .834-.103 1.125-.312.292-.208.467-.588.524-1.14h2.156Zm11.864 12.648a6.29 6.29 0 0 1-2.351-.43 5.684 5.684 0 0 1-1.868-1.226 5.593 5.593 0 0 1-1.226-1.86 6.284 6.284 0 0 1-.43-2.35c0-.855.143-1.639.43-2.352.292-.714.7-1.334 1.226-1.86a5.524 5.524 0 0 1 1.868-1.226 6.19 6.19 0 0 1 2.351-.438c.854 0 1.638.146 2.352.438a5.5 5.5 0 0 1 3.078 3.086c.292.713.437 1.497.437 2.351 0 .849-.145 1.633-.437 2.352a5.5 5.5 0 0 1-3.078 3.086c-.714.286-1.498.43-2.352.43Zm.016-2.203c-1.151 0-2.018-.336-2.602-1.008-.583-.677-.875-1.573-.875-2.687 0-.73.125-1.365.375-1.906.255-.542.636-.961 1.141-1.258.505-.302 1.133-.453 1.883-.453.479 0 .922.054 1.328.164a5.77 5.77 0 0 1 1.179.445l-.718 1.602a3.923 3.923 0 0 0-.797-.329 3.152 3.152 0 0 0-.852-.109c-.411 0-.739.162-.984.484-.24.318-.359.782-.359 1.391 0 .662.112 1.143.335 1.445.23.297.581.446 1.055.446.339 0 .68-.042 1.024-.125a4 4 0 0 0 .992-.407v1.805a4.674 4.674 0 0 1-1 .375 4.652 4.652 0 0 1-1.125.125Zm-.016.93c.651 0 1.248-.112 1.789-.336a4.079 4.079 0 0 0 1.399-.945c.396-.412.7-.896.914-1.454a5.105 5.105 0 0 0 .328-1.859c0-.677-.11-1.294-.328-1.851a4.184 4.184 0 0 0-.914-1.454 4.025 4.025 0 0 0-1.399-.953 4.636 4.636 0 0 0-1.789-.336c-.661 0-1.265.112-1.812.336a4.076 4.076 0 0 0-1.414.953c-.396.407-.704.891-.922 1.454a5.127 5.127 0 0 0-.321 1.851c0 .677.107 1.297.321 1.86.218.557.526 1.041.922 1.453a4.13 4.13 0 0 0 1.414.945 4.74 4.74 0 0 0 1.812.336ZM146.077 17h-7.984v-1.68l2.867-2.898a42.795 42.795 0 0 0 1.39-1.485c.355-.4.61-.765.766-1.093.161-.328.242-.68.242-1.055 0-.453-.127-.792-.383-1.016-.25-.229-.586-.343-1.007-.343-.443 0-.873.101-1.29.304a6.665 6.665 0 0 0-1.304.868l-1.313-1.555c.328-.281.675-.547 1.039-.797.37-.25.797-.45 1.282-.602.489-.156 1.075-.234 1.757-.234.75 0 1.394.135 1.93.406.542.271.958.64 1.25 1.11.292.463.438.99.438 1.578 0 .63-.125 1.206-.375 1.726-.25.521-.615 1.037-1.094 1.547a31.608 31.608 0 0 1-1.719 1.696l-1.469 1.382v.11h4.977V17Zm8.694-5.71c0 .92-.073 1.744-.219 2.468-.141.724-.37 1.338-.688 1.844a3.13 3.13 0 0 1-1.234 1.156c-.51.265-1.13.398-1.859.398-.917 0-1.67-.232-2.258-.695-.589-.469-1.024-1.14-1.305-2.016-.281-.88-.422-1.932-.422-3.156 0-1.234.128-2.289.383-3.164.261-.88.682-1.555 1.266-2.023.583-.47 1.362-.704 2.336-.704.911 0 1.661.235 2.25.704.593.463 1.034 1.135 1.32 2.015.286.875.43 1.932.43 3.172Zm-5.586 0c0 .869.047 1.595.14 2.179.099.578.263 1.013.493 1.304.229.292.546.438.953.438.401 0 .716-.143.945-.43.234-.291.401-.726.5-1.304.099-.584.148-1.313.148-2.188 0-.87-.049-1.596-.148-2.18-.099-.583-.266-1.02-.5-1.312-.229-.297-.544-.445-.945-.445-.407 0-.724.148-.953.445-.23.292-.394.729-.493 1.312-.093.584-.14 1.31-.14 2.18ZM163.589 17h-7.984v-1.68l2.867-2.898a42.97 42.97 0 0 0 1.391-1.485c.354-.4.609-.765.765-1.093a2.35 2.35 0 0 0 .243-1.055c0-.453-.128-.792-.383-1.016-.25-.229-.586-.343-1.008-.343a2.91 2.91 0 0 0-1.289.304 6.64 6.64 0 0 0-1.305.868l-1.312-1.555c.328-.281.674-.547 1.039-.797.37-.25.797-.45 1.281-.602.49-.156 1.076-.234 1.758-.234.75 0 1.393.135 1.93.406.541.271.958.64 1.25 1.11.291.463.437.99.437 1.578 0 .63-.125 1.206-.375 1.726-.25.521-.614 1.037-1.094 1.547a31.923 31.923 0 0 1-1.718 1.696l-1.469 1.382v.11h4.976V17Zm9.014-2.367h-1.375V17h-2.359v-2.367h-4.875v-1.68l5.008-7.375h2.226v7.18h1.375v1.875Zm-3.734-1.875V10.82c0-.182.003-.398.008-.648l.031-.75.031-.664.032-.414h-.063c-.099.213-.203.422-.312.625-.11.198-.237.406-.383.625l-2.094 3.164h2.75Z"/></svg>
